X:146
T:Newtown Bridge
C:Paddy O'Brien
S:Padraig O'Neill, Victoria Bar, Glasgow
Z:robin.beech@mcgill.ca
R:jig
M:6/8
L:1/8
K:D
ABG FDD | ded cAF | GFG A2G | FED EFG |
ABG FDD | ded cAG | Ade f2a |1 gec dcB :|2 gec d2A |:
ded AFA | dfg ade | eAB =c2d | =cAG EFG |
ABG FDD | ded cAG | Ade f2a | gec d2A |
ded AFA | dfg ade | eAB =c2d | =cAG EFG |
afa g2e | fed =cAG | Ade f2a | gec dcB |]
